!!!!SEGMENT: Gom2004-Qui_colis_Ausoniam.krn
!!!id: Gom2004
!!!AGN: Motet
!!!SCT: Schmidt-Görg (1974)
!!!voices: 6
!!!COM: Nicolas Gombert
!!!OTL: Qui colis Ausoniam
**kern	**kern	**kern	**kern	**kern	**kern
*part6	*part5	*part4	*part3	*part2	*part1
*staff6	*staff5	*staff4	*staff3	*staff2	*staff1
*I"Bassus	*I"Tenor III	*I"Tenor II	*I"Tenor I	*I"Altus	*I"Superius
*I'B	*I'T. III	*I'T. II	*I'T. I	*I'A	*I'S
*clefF4	*clefGv2	*clefGv2	*clefGv2	*clefG2	*clefG2
*k[]	*k[]	*k[]	*k[]	*k[]	*k[]
*C:	*C:	*C:	*C:	*C:	*C:
*M2/1	*M2/1	*M2/1	*M2/1	*M2/1	*M2/1
*met(C|)	*met(C|)	*met(C|)	*met(C|)	*met(C|)	*met(C|)
!!section: Prima pars: Qui colis Ausoniam
!!!OMD: Prima pars: Qui colis Ausoniam
=1	=1	=1	=1	=1	=1
0r	1r	0r	1.G	0r	0r
.	[1C	.	.	.	.
.	.	.	2G	.	.
=2	=2	=2	=2	=2	=2
0r	2C]	0r	1.c	0r	0r
.	2C	.	.	.	.
.	[1F	.	.	.	.
.	.	.	2B	.	.
=3	=3	=3	=3	=3	=3
0r	2F]	0r	1c	0r	0r
.	2E	.	.	.	.
.	2F	.	2d	.	.
.	2G	.	[2e	.	.
=4	=4	=4	=4	=4	=4
0r	2.A	0r	4e]	1.c	0r
.	.	.	4d	.	.
.	.	.	4c	.	.
.	4G	.	4B	.	.
.	2F	.	2A	.	.
.	2E	.	2G	2c	.
=5	=5	=5	=5	=5	=5
0r	2D	0r	4A	2f	0r
.	.	.	4B	.	.
.	2C	.	2.c	2e	.
.	1D	.	.	2.f	.
.	.	.	4A	.	.
.	.	.	2B	.	.
.	.	.	.	4g	.
=6	=6	=6	=6	=6	=6
0r	2C	1r	2c	2a	0r
.	2.c	.	2e	2.g	.
.	.	[1G	1d	.	.
.	4A	.	.	4f	.
.	2B	.	.	2d	.
=7	=7	=7	=7	=7	=7
1.C	2c	2G]	[0c	2.e	0r
.	4B	2G	.	.	.
.	4A	.	.	4f	.
.	2G	[1c	.	4g	.
.	.	.	.	4f	.
2C	2G	.	.	4e	.
.	.	.	.	4d	.
=8	=8	=8	=8	=8	=8
1.F	2A	2c]	0c]	4c	0r
.	.	.	.	4A	.
.	4F	2B	.	1a	.
.	4G	.	.	.	.
.	4A	2c	.	.	.
.	4B	.	.	.	.
2E	[2c	2e	.	2g	.
=9	=9	=9	=9	=9	=9
2F	2c]	1d	0r	2a	0r
2G	2B	.	.	1g	.
1A	2c	2c	.	.	.
.	2A	2c	.	2f#i	.
=10	=10	=10	=10	=10	=10
2G	2B	2d	0r	1g	1.g
2C	1c	2e	.	.	.
2G	.	2d	.	2.g	.
2G	2B	[2g	.	.	2g
.	.	.	.	4f	.
=11	=11	=11	=11	=11	=11
1A	1c	4g]	0r	2e	1.cc
.	.	4e	.	.	.
.	.	2f#i	.	2c	.
2.G	1r	2g	.	1d	.
.	.	[2G	.	.	2b
4F	.	.	.	.	.
=12	=12	=12	=12	=12	=12
2E	0r	2G]	1r	2e	2cc
2D	.	2A	.	2f	2dd
1C	.	1c	2r	[1g	1ee
.	.	.	2c	.	.
=13	=13	=13	=13	=13	=13
1r	1.G	1B	2g	2g]	0dd
.	.	.	2g	4f	.
.	.	.	.	4e	.
1D	.	1A	1a	2d	.
.	2F	.	.	2d	.
=14	=14	=14	=14	=14	=14
2G	2.E	2r	2.g	2e	1r
2G	.	2G	.	2.g	.
.	4D	.	4f	.	.
1A	2C	2c	2e	.	2r
.	.	.	.	4e	.
.	[2c	2c	2c	2f	2a
=15	=15	=15	=15	=15	=15
2.G	2c]	1d	1g	2d	2dd
.	2B	.	.	1g	2dd
4F	.	.	.	.	.
2E	4c	2.c	2r	.	1ee
.	4B	.	.	.	.
2C	4A	.	2G	4f	.
.	4G	4B	.	4e	.
=16	=16	=16	=16	=16	=16
2D	2F	2A	2d	2f	2dd
1G	2G	2B	2d	2d	2.b
.	1E	1G	1e	1g	.
.	.	.	.	.	4a
2C	.	.	.	.	[2g
=17	=17	=17	=17	=17	=17
1D	1r	2r	1d	2r	2g]
.	.	2A	.	2a	2f#i
1r	1G	2d	1B	4b	2g
.	.	.	.	4a	.
.	.	2d	.	4g	2b
.	.	.	.	4f	.
=18	=18	=18	=18	=18	=18
0r	1C	2e	1c	4e	2a
.	.	.	.	4f	.
.	.	2e	.	4g	1g
.	.	.	.	4e	.
.	1D	2d	1A	4f	.
.	.	.	.	4e	.
.	.	[2d	.	4d	2f#i
.	.	.	.	4c	.
=19	=19	=19	=19	=19	=19
2r	1G	2d]	4G	1B	[0g
.	.	.	4A	.	.
1G	.	2c	4B	.	.
.	.	.	4c	.	.
.	2G	2B	2d	2r	.
2G	2E	2G	2e	[2g	.
=20	=20	=20	=20	=20	=20
2E	2C	2c	1d	2g]	0g]
2C	2.G	2c	.	2g	.
2.G	.	2B	2r	2e	.
.	4A	.	.	.	.
.	4B	[2d	[2g	2d	.
4A	4c	.	.	.	.
=21	=21	=21	=21	=21	=21
2B	2G	2d]	2g]	1.g	2r
1c	2C	2e	2g	.	1cc
.	1c	4c	2e	.	.
.	.	4d	.	.	.
4B	.	4e	2c	2a	2cc
4A	.	4c	.	.	.
=22	=22	=22	=22	=22	=22
1G	2r	2d	2.g	1d	2b
.	1G	2B	.	.	2g
.	.	.	4f	.	.
1C	.	2.c	2e	1r	2cc
.	2A	.	2e	.	2cc
.	.	4B	.	.	.
=23	=23	=23	=23	=23	=23
1G	2B	1G	1d	2r	1b
.	2G	.	.	1d	.
1r	2B	1r	1r	.	2g
.	2c	.	.	2e	2a
=24	=24	=24	=24	=24	=24
0r	1d	2r	2r	2f	2b
.	.	1G	1B	2g	2g
.	1r	.	.	2e	2b
.	.	2A	2c	2e	2a
=25	=25	=25	=25	=25	=25
2r	0r	2B	2d	2d	1g
1C	.	2c	2e	1g	.
.	.	2A	2e	.	1r
2D	.	2A	2d	2f#i	.
=26	=26	=26	=26	=26	=26
2E	0r	2G	2B	2.e	1.g
2C	.	2c	2.e	.	.
.	.	.	.	4f	.
2E	.	2B	.	2g	.
.	.	.	4d	.	.
2F	.	2A	2c	2f	2a
=27	=27	=27	=27	=27	=27
1.G	1r	1G	2.B	1d	2b
.	.	.	.	.	2g
.	.	.	4c	.	.
.	2.G	1r	2d	2r	2b
2C	.	.	2e	[2g	2cc
.	4A	.	.	.	.
=28	=28	=28	=28	=28	=28
1.G	2.B	2.G	1d	4g]	[0dd
.	.	.	.	4a	.
.	.	.	.	2b	.
.	4c	4A	.	.	.
.	2d	2B	2r	2g	.
2F	2D	2A	2d	[2a	.
=29	=29	=29	=29	=29	=29
1G	1d	2.B	2B	4a]	0dd_
.	.	.	.	4g	.
.	.	.	2G	1g	.
.	.	4c	.	.	.
1D	2r	2d	1A	.	.
.	2d	2A	.	2f#i	.
=30	=30	=30	=30	=30	=30
2r	2d	1B	1.G	0g	0dd]
2G	2d	.	.	.	.
2G	2B	1d	.	.	.
2G	2B	.	2d	.	.
=31	=31	=31	=31	=31	=31
1D	1.A	2f	2d	0r	1r
.	.	2f	2d	.	.
1F	.	2.c	2A	.	1a
.	4G	.	[2c	.	.
.	4F	4d	.	.	.
=32	=32	=32	=32	=32	=32
0C	0G	[0e	2c]	1r	2cc
.	.	.	2G	.	2cc
.	.	.	1c	2r	2.g
.	.	.	.	2e	.
.	.	.	.	.	4a
=33	=33	=33	=33	=33	=33
0r	1E	1e]	2B	2g	4b
.	.	.	.	.	4cc
.	.	.	2G	2g	1b
.	2G	2r	2B	1d	.
.	2G	2B	2B	.	4a
.	.	.	.	.	4g
=34	=34	=34	=34	=34	=34
2r	2D	2d	1A	1f	1.a
2D	2.F	2d	.	.	.
2F	.	1A	2r	2c	.
.	4G	.	.	.	.
2F	4A	.	2A	2f	2cc
.	4F	.	.	.	.
=35	=35	=35	=35	=35	=35
2C	2G	2r	2c	2e	1.ee
1c	2A	2e	2c	2c	.
.	1G	2g	2G	1d	.
2B	.	2g	[2g	.	2dd
=36	=36	=36	=36	=36	=36
1A	1r	1c	2g]	2e	2.cc
.	.	.	2f	2c	.
.	.	.	.	.	8bL
.	.	.	.	.	8aJ
1G	1G	1r	2e	2g	1b
.	.	.	2d	2g	.
=37	=37	=37	=37	=37	=37
[0C	2c	2r	2c	1e	1g
.	2c	2e	2c	.	.
.	[1G	2g	2e	2r	2cc
.	.	2g	2e	2e	2cc
=38	=38	=38	=38	=38	=38
1C]	2G]	2.e	1c	2g	2g
.	1c	.	.	2g	1ee
.	.	4d	.	.	.
1r	.	2c	2r	2e	.
.	2B	2d	2G	2g	[2dd
=39	=39	=39	=39	=39	=39
1r	1A	2e	2c	2a	4dd]
.	.	.	.	.	4cc
.	.	2c	2A	2f	1cc
2r	1G	1d	4B	[1g	.
.	.	.	4c	.	.
[2G	.	.	2d	.	2b
=40	=40	=40	=40	=40	=40
2G]	1C	2.c	1e	2g]	[0cc
2G	.	.	.	4f	.
.	.	4B	.	4e	.
2F	1r	4c	2r	2a	.
.	.	4d	.	.	.
2E	.	[2e	[2c	[2g	.
=41	=41	=41	=41	=41	=41
1A	0r	2e]	2c]	2g]	1cc]
.	.	4d	2c	2f	.
.	.	4c	.	.	.
2G	.	2d	2B	2g	1r
[2F	.	[2f	2A	[2a	.
=42	=42	=42	=42	=42	=42
2F]	1r	2f]	1d	2a]	0r
4E	.	2f	.	4g	.
4D	.	.	.	4f	.
2.C	2r	2e	1G	1g	.
.	[2c	2c	.	.	.
4D	.	.	.	.	.
=43	=43	=43	=43	=43	=43
2E	2c]	2g	2G	1r	0r
2F	2c	2c	2A	.	.
1D	2B	1d	2.F	2r	.
.	2A	.	.	[2f	.
.	.	.	4G	.	.
=44	=44	=44	=44	=44	=44
4D	1d	2r	1A	2f]	1r
4E	.	.	.	.	.
4F	.	2A	.	2f	.
4G	.	.	.	.	.
1A	2.c	4A	1r	2e	[1cc
.	.	4B	.	.	.
.	.	4c	.	[2c	.
.	4B	4d	.	.	.
=45	=45	=45	=45	=45	=45
0r	1A	2e	0r	4c]	2cc]
.	.	.	.	4d	.
.	.	2c	.	4e	2cc
.	.	.	.	4f	.
.	2G	[1d	.	2g	2b
.	2F	.	.	[2a	2a
=46	=46	=46	=46	=46	=46
0r	1B-i	2d]	1d	2a]	1dd
.	.	2G	.	2g	.
.	2A	4c	2e	2a	2cc
.	.	4A	.	.	.
.	2G	4B	[2g	2d	2b
.	.	4c	.	.	.
=47	=47	=47	=47	=47	=47
2r	1D	1d	2g]	4f	1a
.	.	.	.	4e	.
2D	.	.	2f	4d	.
.	.	.	.	4c	.
2E	1G	2r	2.g	1B	2g
[2G	.	2G	.	.	2b
.	.	.	4f	.	.
=48	=48	=48	=48	=48	=48
2G]	2r	2A	2e	1c	1a
2F#i	2A	2c	2f	.	.
1G	2B	2.B	1d	2r	1g
.	[2d	.	.	2d	.
.	.	4A	.	.	.
=49	=49	=49	=49	=49	=49
1E	2d]	1G	0r	2e	1r
.	2c#i	.	.	1g	.
1D	1d	1A	.	.	1a
.	.	.	.	2f#i	.
=50	=50	=50	=50	=50	=50
1G	1B	1r	1d	1g	2b
.	.	.	.	.	2dd
1r	2A	2A	2e	2c	2cc
.	2G	2B	[2g	[2d	2b
=51	=51	=51	=51	=51	=51
2r	1D	2.d	2g]	4d]	1a
.	.	.	.	4e	.
2D	.	.	2f#i	2f	.
.	.	4c	.	.	.
2E	1G	2B	2.g	2e	1g
[2G	.	2G	.	2d	.
.	.	.	4fny	.	.
=52	=52	=52	=52	=52	=52
2G]	0r	1A	2e	2c	1r
2F	.	.	2f	2A	.
1G	.	1G	4c	2B	1d
.	.	.	4B	.	.
.	.	.	4A	[2d	.
.	.	.	4G	.	.
=53	=53	=53	=53	=53	=53
1.E	1G	1r	2B	2d]	2e
.	.	.	2c	2c#i	2.g
.	1A	2r	1A	[1d	.
.	.	.	.	.	4e
2D	.	[2d	.	.	2f#i
=54	=54	=54	=54	=54	=54
1G	1B	2d]	1G	2d]	0g
.	.	2d	.	4c	.
.	.	.	.	4B	.
1C	1G	1e	1r	2.c	.
.	.	.	.	4d	.
=55	=55	=55	=55	=55	=55
0r	2.c	2c	2r	1e	1g
.	.	2e	1c	.	.
.	4B	.	.	.	.
.	2A	2f	.	1r	2a
.	2G	[2g	2d	.	2b
=56	=56	=56	=56	=56	=56
1r	2c	2g]	2e	1c	2g
.	2A	2f	2c	.	2cc
2r	1G	2d	2.g	2d	2b
[2C	.	[2c	.	2e	[2g
.	.	.	4f	.	.
=57	=57	=57	=57	=57	=57
2C]	0r	4c]	2e	2c	2g]
.	.	4B	.	.	.
2D	.	2A	2d	2f	2f
2E	.	1G	2B	2.e	1g
2C	.	.	[2c	.	.
.	.	.	.	4d	.
=58	=58	=58	=58	=58	=58
2.F	2r	2r	4c]	1c	1a
.	.	.	4B	.	.
.	1F	2c	4A	.	.
4E	.	.	4G	.	.
2D	.	2d	2A	1r	2r
2C	2G	2e	[2c	.	[2cc
=59	=59	=59	=59	=59	=59
2F	2A	2c	2c]	1r	2cc]
2D	2F	2f	2B	.	2dd
1C	2r	2e	1c	1g	2ee
.	[2c	2e	.	.	2cc
=60	=60	=60	=60	=60	=60
0r	2c]	1d	1r	2a	1ff
.	2B-X	.	.	2b-X	.
.	2c	2c	2c	2g	2ee
.	2B-i	2G	2d	[2g	[2dd
=61	=61	=61	=61	=61	=61
1r	1A	2c	2e	4g]	4dd]
.	.	.	.	4e	4cc
.	.	2A	2c	2f	1cc
2r	1G	2.B	[1g	1d	.
2G	.	.	.	.	2b
.	.	4A	.	.	.
=62	=62	=62	=62	=62	=62
2E	2C	2G	2g]	1c	1cc
2F	2.c	2A	2f	.	.
2G	.	1G	2e	2r	1r
.	4A	.	.	.	.
2G	2B	.	2d	2g	.
=63	=63	=63	=63	=63	=63
1A	2c	0r	1c	2e	2r
.	2c	.	.	2f#i	2.cc
1G	1d	.	1r	[1g	.
.	.	.	.	.	4a
.	.	.	.	.	2b
=64	=64	=64	=64	=64	=64
0r	1c	1e	2r	1g]	2cc
.	.	.	2g	.	2g
.	1r	2c	2e	1r	1a
.	.	2d	2f	.	.
=65	=65	=65	=65	=65	=65
1E	1G	1B	2g	0r	1g
.	.	.	2G	.	.
2C	2E	1r	2A	.	2r
2D	2F	.	[2B	.	2dd
=66	=66	=66	=66	=66	=66
2E	2G	1r	4B]	0r	2b
.	.	.	4G	.	.
2E	2G	.	2.g	.	2cc
1D	1A	1d	.	.	[1dd
.	.	.	4e	.	.
.	.	.	2f#i	.	.
=67	=67	=67	=67	=67	=67
1G	1G	1B	2g	1g	2dd]
.	.	.	2G	.	2dd
1r	1r	2c	2B	2e	2ee
.	.	2d	2A	2f	[2dd
=68	=68	=68	=68	=68	=68
0r	0r	2e	2G	2g	2dd]
.	.	2e	2.g	2g	2cc
.	.	1d	.	1a	1dd
.	.	.	4f	.	.
.	.	.	2f	.	.
=69	=69	=69	=69	=69	=69
0r	2.c	2r	2.e	1g	1ee
.	.	2.g	.	.	.
.	4c	.	4e	.	.
.	2B	.	2d	1r	1r
.	.	4g	.	.	.
.	2A	2f	2c	.	.
=70	=70	=70	=70	=70	=70
0r	1c	2e	1e	0r	2.cc
.	.	1g	.	.	.
.	.	.	.	.	4cc
.	2G	.	2d	.	2b
.	2A	2e	2c	.	2a
=71	=71	=71	=71	=71	=71
1r	1F	1f	2A	0r	2cc
.	.	.	1c	.	2cc
2r	1G	2.d	.	.	1g
[2G	.	.	2B	.	.
.	.	4e	.	.	.
=72	=72	=72	=72	=72	=72
4G]	2.c	2f	2A	1r	0r
4G	.	.	.	.	.
2F	.	2g	2.G	.	.
.	4c	.	.	.	.
2E	2B	1d	.	2.g	.
.	.	.	4A	.	.
[2G	2G	.	4B	.	.
.	.	.	4c	4g	.
=73	=73	=73	=73	=73	=73
2G]	2A	1r	2d	2f	0r
2D	1G	.	2B	1e	.
2E	.	2.g	1c	.	.
2C	4F	.	.	2g	.
.	4G	4g	.	.	.
=74	=74	=74	=74	=74	=74
1D	1F	2f	1A	2d	2.dd
.	.	2d	.	2f	.
.	.	.	.	.	4dd
1r	1r	1g	2.c	2e	2cc
.	.	.	.	4d	2cc
.	.	.	4c	4c	.
=75	=75	=75	=75	=75	=75
2.G	2r	2.d	2B	1g	2dd
.	2.d	.	2G	.	2b
4G	.	4e	.	.	.
2F	.	4f	2A	1r	4a
.	4d	4d	.	.	4f
2E	2c	2e	2G	.	4g
.	.	.	.	.	4a
=76	=76	=76	=76	=76	=76
1G	2.B	[0d	1r	0r	2b
.	.	.	.	.	1g
.	4G	.	.	.	.
1D	1A	.	2A	.	.
.	.	.	2A	.	2f#i
=77	=77	=77	=77	=77	=77
0r	1G	1d]	2B	2.d	1g
.	.	.	2d	.	.
.	.	.	.	4d	.
.	2.E	1r	2c	2e	2.g
.	.	.	2B	2g	.
.	4E	.	.	.	4g
=78	=78	=78	=78	=78	=78
0r	2F	2.A	1A	2f	2a
.	2A	.	.	2e	2cc
.	.	4A	.	.	.
.	2.G	2B	2.d	1g	2.b
.	.	[2d	.	.	.
.	4F	.	4d	.	4a
=79	=79	=79	=79	=79	=79
1r	1E	4d]	2e	0r	2g
.	.	4B	.	.	.
.	.	2c	2.g	.	2g
2.D	1D	1d	.	.	2b
.	.	.	4e	.	.
.	.	.	2f	.	2a
4D	.	.	.	.	.
=80	=80	=80	=80	=80	=80
2E	2.G	1B	1g	1r	2g
2G	.	.	.	.	2b
.	4G	.	.	.	.
2F	2A	1r	1r	2.c	2a
2E	2c	.	.	.	[2g
.	.	.	.	4c	.
=81	=81	=81	=81	=81	=81
1D	2B	2.d	2r	2d	4g]
.	.	.	.	.	4f
.	2A	.	2d	2f	1g
.	.	4d	.	.	.
1r	1G	2e	2B	2e	.
.	.	2g	2G	[2d	[2b-X
=82	=82	=82	=82	=82	=82
0r	1r	2f	2B-X	2d]	2b-]
.	.	2e	2c	1c	2a
.	2.G	1d	1G	.	1g
.	.	.	.	2B	.
.	4G	.	.	.	.
=83	=83	=83	=83	=83	=83
2.C	2A	2c	1r	1c	1e
.	2c	2e	.	.	.
4C	.	.	.	.	.
2D	2B	2f	2.d	1r	1r
2F	[2A	[2d	.	.	.
.	.	.	4d	.	.
=84	=84	=84	=84	=84	=84
1E	2A]	4d]	2e	1r	2.cc
.	.	4c	.	.	.
.	2G	1c	2g	.	.
.	.	.	.	.	4cc
1D	2A	.	2f	2.d	2dd
.	2F	2B	2d	.	2ff
.	.	.	.	4d	.
=85	=85	=85	=85	=85	=85
1C	2.G	2.c	1g	2e	2ee
.	.	.	.	2g	1cc
.	4G	4B	.	.	.
1r	2A	1A	2.c	2f	.
.	2c	.	.	2e	2a
.	.	.	4c	.	.
=86	=86	=86	=86	=86	=86
1r	2B	2G	2d	2g	2b
.	2A	2A	2f	2c	2.cc
2.G	1G	2B	2e	1g	.
.	.	.	.	.	4b
.	.	2G	2d	.	2b
4G	.	.	.	.	.
=87	=87	=87	=87	=87	=87
2A	2.C	2r	[0cl	2.e	[0ccl
2.c	.	2.e	.	.	.
.	4D	.	.	4f	.
.	2E	.	.	2g	.
4B	.	4d	.	.	.
4A	[2F	4c	.	[2a	.
4G	.	4B	.	.	.
=88	=88	=88	=88	=88	=88
2F	2F]	2A	0c_	2a]	0cc_
2E	2G	2e	.	2.g	.
1F	1A	2.c	.	.	.
.	.	.	.	4f	.
.	.	.	.	2f	.
.	.	4d	.	.	.
=	=	=	=	=	=
00C	00G	00e	00c]	00g	00cc]
=||	=||	=||	=||	=||	=||
*M2/1	*M2/1	*M2/1	*M2/1	*M2/1	*M2/1
*met(C|)	*met(C|)	*met(C|)	*met(C|)	*met(C|)	*met(C|)
!!section: Secunda pars: Perpetuum Clemens
!!!OMD: Secunda pars: Perpetuum Clemens
0r	0r	1G	0r	0r	0r
.	.	[1d	.	.	.
=89	=89	=89	=89	=89	=89
0r	0r	2d]	0r	0r	0r
.	.	2B	.	.	.
.	.	2c	.	.	.
.	.	2d	.	.	.
=90	=90	=90	=90	=90	=90
0r	0r	1e	0r	0r	1g
.	.	1d	.	.	[1dd
=91	=91	=91	=91	=91	=91
0r	0r	1g	0r	0r	2dd]
.	.	.	.	.	2b
.	.	2e	.	.	2cc
.	.	2f	.	.	2dd
=92	=92	=92	=92	=92	=92
0r	0r	4g	0r	1c	1.ee
.	.	4f	.	.	.
.	.	4e	.	.	.
.	.	4d	.	.	.
.	.	2c	.	[1g	.
.	.	2B	.	.	[2dd
=93	=93	=93	=93	=93	=93
0r	0r	1e	1r	2g]	2dd]
.	.	.	.	1e	2cc
.	.	2.d	2r	.	2a
.	.	.	2G	2g	2b
.	.	4e	.	.	.
=94	=94	=94	=94	=94	=94
0r	0r	1f	1.d	2.a	2a
.	.	.	.	.	1ff
.	.	.	.	4g	.
.	.	1d	.	2f	.
.	.	.	2B	[2g	4ee
.	.	.	.	.	4dd
=95	=95	=95	=95	=95	=95
1r	0r	2r	2c	4g]	2ee
.	.	.	.	4a	.
.	.	2G	2d	2b	2.dd
1C	.	2c	1e	[1g	.
.	.	.	.	.	4cc
.	.	2c	.	.	2cc
=96	=96	=96	=96	=96	=96
1.G	0r	1.B	1d	0g]	4dd
.	.	.	.	.	4cc
.	.	.	.	.	4b
.	.	.	.	.	4a
.	.	.	1g	.	1b
2E	.	2G	.	.	.
=97	=97	=97	=97	=97	=97
2F	0r	2A	2f	1r	2a
2G	.	2B	1e	.	1g
1A	.	1c	.	1c	.
.	.	.	4d	.	2f#i
.	.	.	4c	.	.
=98	=98	=98	=98	=98	=98
2.G	1G	1B	0d	1.g	4g
.	.	.	.	.	4a
.	.	.	.	.	4b
4F	.	.	.	.	4g
1D	[1d	1A	.	.	1a
.	.	.	.	2f#i	.
=99	=99	=99	=99	=99	=99
1G	2d]	1r	1B	1g	1b
.	2B	.	.	.	.
2.F	2c	2r	1A	2a	1r
.	2d	2F	.	2f	.
4E	.	.	.	.	.
=100	=100	=100	=100	=100	=100
1C	1e	1.c	1G	0g	0r
1G	1d	.	2r	.	.
.	.	2B	2d	.	.
=101	=101	=101	=101	=101	=101
1C	1c	2.G	2.g	2r	1r
.	.	.	.	2e	.
.	.	4A	4f	.	.
1r	1r	2B	2d	[1g	2r
.	.	2c	2e	.	2g
=102	=102	=102	=102	=102	=102
0r	1r	1A	2c	2g]	1.cc
.	.	.	2c	2f	.
.	2r	[1G	[1g	1d	.
.	2G	.	.	.	2b
=103	=103	=103	=103	=103	=103
1C	1.c	1G]	2g]	2e	0g
.	.	.	2e	2.g	.
[1G	.	2r	1d	.	.
.	.	.	.	4f	.
.	2B	2G	.	[2d	.
=104	=104	=104	=104	=104	=104
2G]	2G	1.d	0r	4d]	1r
.	.	.	.	4e	.
2F	2.A	.	.	1f	.
2D	.	.	.	.	2r
.	4F	.	.	.	.
2E	[2c	2c	.	2e	2g
=105	=105	=105	=105	=105	=105
2F	2c]	2A	2r	1d	1.dd
2G	1B	2B	2d	.	.
1E	.	1G	[1g	1r	.
.	4A	.	.	.	2cc
.	4G	.	.	.	.
=106	=106	=106	=106	=106	=106
1D	1A	2.d	2g]	0r	1a
.	.	.	2f	.	.
.	.	4c	.	.	.
2.G	2r	1B	2.d	.	2b
.	2G	.	.	.	[2dd
4F	.	.	4e	.	.
=107	=107	=107	=107	=107	=107
1D	1.d	0A	1.f	2r	4dd]
.	.	.	.	.	4cc
.	.	.	.	2d	2.a
1r	.	.	.	[1a	.
.	.	.	.	.	4b
.	2c	.	[2e	.	[2cc
=108	=108	=108	=108	=108	=108
0r	2A	0r	2e]	2a]	2cc]
.	2B	.	2d	2g	2dd
.	1c	.	2g	2e	2ee
.	.	.	2f	2d	[2ff
=109	=109	=109	=109	=109	=109
0r	1B	1r	1d	2f	4ff]
.	.	.	.	.	4ee
.	.	.	.	2g	1dd
.	1A	2r	1e	2.a	.
.	.	[2A	.	.	2cc#i
.	.	.	.	4g	.
=110	=110	=110	=110	=110	=110
1D	1D	2A]	1d	4f	1dd
.	.	.	.	4e	.
.	.	2B	.	4d	.
.	.	.	.	4c	.
2E	1r	2G	1r	2B	[1g
2C	.	[2c	.	2e	.
=111	=111	=111	=111	=111	=111
1G	2r	4c]	2r	1d	1g]
.	.	4B	.	.	.
.	1G	2B	2d	.	.
2C	.	1c	2e	2c	1r
[2c	2A	.	2c	[2e	.
=112	=112	=112	=112	=112	=112
2c]	1G	2r	1g	4e]	1r
.	.	.	.	4f	.
2B	.	2d	.	1g	.
2A	1c	2e	1c	.	1a
2A	.	2c	.	2f	.
=113	=113	=113	=113	=113	=113
1G	1B	2.g	2r	1d	2b
.	.	.	1g	.	2g
.	.	4f	.	.	.
1r	1r	1d	.	2r	1dd
.	.	.	2f	2d	.
=114	=114	=114	=114	=114	=114
0r	1r	1c	2g	2e	2g
.	.	.	2e	2c	1cc
.	1G	1r	1d	1g	.
.	.	.	.	.	2b
=115	=115	=115	=115	=115	=115
0r	2A	0r	2r	1c	2a
.	2F	.	1f	.	2a
.	1c	.	.	2r	1g
.	.	.	2e	2c	.
=116	=116	=116	=116	=116	=116
0r	2F	0r	2f	2.c	2r
.	1c	.	2e	.	1ee
.	.	.	.	4d	.
.	.	.	2c	4e	.
.	.	.	.	4f	.
.	2B	.	2d	[2g	2dd
=117	=117	=117	=117	=117	=117
1r	2A	1c	2e	2g]	2cc
.	2A	.	2c	2f#i	2a
1G	1G	2B	2.d	1g	2.b
.	.	2B	.	.	.
.	.	.	4e	.	4g
=118	=118	=118	=118	=118	=118
2F	0r	2c	2f	2c	4a
.	.	.	.	.	4b
2E	.	2c	2.g	2e	1cc
2F	.	2G	.	1d	.
.	.	.	4f	.	.
2G	.	2B	2d	.	2b
=119	=119	=119	=119	=119	=119
2C	1r	2A	2.e	2r	0cc
2C	.	2G	.	2g	.
.	.	.	8dL	.	.
.	.	.	8eJ	.	.
2F	1c	1A	4f	2f	.
.	.	.	4e	.	.
2A	.	.	4d	2f	.
.	.	.	4c	.	.
=120	=120	=120	=120	=120	=120
1G	2B	1r	2.d	2g	0r
.	2B	.	.	2g	.
.	.	.	8cL	.	.
.	.	.	8BJ	.	.
2F	2c	2r	2A	1c	.
2E	2c	2c	2G	.	.
=121	=121	=121	=121	=121	=121
1D	2F	2B	1d	1g	1r
.	2F	2A	.	.	.
1C	2G	2c	2r	2e	1cc
.	2E	2c	2G	2e	.
=122	=122	=122	=122	=122	=122
2r	1D	1F	2d	2f	2b-X
2F	.	.	2d	2f	2g
2A	1r	2r	1c	2c	2cc
[2c	.	2c	.	[2e	2cc
=123	=123	=123	=123	=123	=123
2c]	1G	2e	0r	2e]	2g
2B	.	1g	.	2d	2g
1A	2c	.	.	2e	2a
.	2A	2f	.	2c	2cc
=124	=124	=124	=124	=124	=124
2G	2B	2d	0r	1g	2b
2E	1c	2.e	.	.	2g
1F	.	.	.	1r	1a
.	.	4c	.	.	.
.	4B	2d	.	.	.
.	4A	.	.	.	.
=125	=125	=125	=125	=125	=125
2.E	2B	1e	2r	2r	1g
.	2G	.	1e	1g	.
4D	.	.	.	.	.
2C	2.A	1r	.	.	1r
2D	.	.	2d	2f	.
.	4F	.	.	.	.
=126	=126	=126	=126	=126	=126
1C	1c	1g	2e	2g	2r
.	.	.	2c	2e	1cc
2r	1r	2f	2d	1d	.
[2G	.	2g	2G	.	2b
=127	=127	=127	=127	=127	=127
2G]	1r	2e	1A	2c	2cc
2F	.	2f	.	2.d	4b
.	.	.	.	.	4a
2G	2r	2d	1r	.	1g
.	.	.	.	4B	.
2E	[2G	[2c	.	2c	.
=128	=128	=128	=128	=128	=128
1D	2G]	4c]	1r	2d	1r
.	.	4A	.	.	.
.	2F	2B	.	2f	.
1C	2G	2.c	2r	1e	1g
.	2E	.	[2c	.	.
.	.	4B	.	.	.
=129	=129	=129	=129	=129	=129
0r	2F	2A	2c]	1d	2a
.	2G	2G	2B	.	2b
.	2C	2e	1A	2r	2g
.	2D	2d	.	[2d	2f#i
=130	=130	=130	=130	=130	=130
2r	1E	2B	1G	2d]	1g
1G	.	4A	.	2c	.
.	.	4G	.	.	.
.	1D	1A	2r	2d	2r
2F#i	.	.	2A	2f	[2dd
=131	=131	=131	=131	=131	=131
2G	0r	2G	2B	2d	2dd]
2E	.	1c	2G	2e	2cc
2D	.	.	2A	2f	2dd
2D	.	2B	2F	2d	2ff
=132	=132	=132	=132	=132	=132
1C	0r	2c	2G	1e	2ee
.	.	2e	1c	.	4dd
.	.	.	.	.	4cc
1G	.	2d	.	2r	2dd
.	.	2G	2B	[2g	2dd
=133	=133	=133	=133	=133	=133
2C	2r	2.A	1.c	2g]	[0cc
1F	1A	.	.	2f	.
.	.	4B	.	.	.
.	.	4c	.	2c	.
.	.	4d	.	.	.
2E	2G	2e	2c	[2g	.
=134	=134	=134	=134	=134	=134
1F	2A	1c	1A	4g]	0cc]
.	.	.	.	4f	.
.	2.c	.	.	2.f	.
1C	.	1r	1G	.	.
.	4B	.	.	4e	.
.	2G	.	.	2e	.
=135	=135	=135	=135	=135	=135
1F	1A	1.c	2F	1f	0r
.	.	.	2c	.	.
1r	1G	.	2d	[1g	.
.	.	2B	2d	.	.
=136	=136	=136	=136	=136	=136
0r	0r	1A	2e	2g]	1.cc
.	.	.	2c	2f	.
.	.	1G	[1g	2e	.
.	.	.	.	2d	2b
=137	=137	=137	=137	=137	=137
0r	1r	2c	2g]	2e	1a
.	.	2.d	2f	2f	.
.	2r	.	1e	2g	2g
.	.	4c	.	.	.
.	[2c	2c	.	2e	2g
=138	=138	=138	=138	=138	=138
0r	2c]	4d	1d	2.f	2a
.	.	4e	.	.	.
.	2B	4f	.	.	2b
.	.	4d	.	4g	.
.	2A	4e	1r	2a	2cc
.	.	4c	.	.	.
.	2G	[2g	.	2b-i	2dd
=139	=139	=139	=139	=139	=139
0r	2c	2g]	1r	1a	2ee
.	2d	2f#i	.	.	2.dd
.	1e	2g	2r	1g	.
.	.	.	.	.	4cc#i
.	.	2e	[2c	.	2cc#i
=140	=140	=140	=140	=140	=140
2r	1d	2f	2c]	0r	1dd
1G	.	4e	2B	.	.
.	.	4d	.	.	.
.	1c	2e	2A	.	1r
2F	.	2f	2A	.	.
=141	=141	=141	=141	=141	=141
2E	0r	2g	2G	1r	2r
2C	.	2e	2G	.	1cc
2F	.	1d	2A	2r	.
2G	.	.	2B	[2g	2b
=142	=142	=142	=142	=142	=142
2A	0r	2r	1c	2g]	1a
2F	.	1c	.	2f	.
1G	.	.	1r	2e	2.g
.	.	2B	.	2d	.
.	.	.	.	.	4d
=143	=143	=143	=143	=143	=143
0r	2r	2A	0r	2c	2e
.	1G	2G	.	2B	2g
.	.	2.c	.	1A	2e
.	2F	.	.	.	2f
.	.	4d	.	.	.
=144	=144	=144	=144	=144	=144
0r	2E	1.e	0r	2B	1g
.	2C	.	.	2.c	.
.	2F	.	.	.	2a
.	.	.	.	4B	.
.	2G	2d	.	2B	2g
=145	=145	=145	=145	=145	=145
0C	2A	0c	0e	1c	1e
.	2A	.	.	.	.
.	1G	.	.	1g	1cc
=146	=146	=146	=146	=146	=146
1.G	1B	0r	1.d	1.g	1.b
.	2B	.	.	.	.
2F	2A	.	2f	2a	2cc
=147	=147	=147	=147	=147	=147
1F	1A	1c	2f	2a	0cc
.	.	.	1c	2f	.
1C	2r	2.e	.	2.g	.
.	[2G	.	[2e	.	.
.	.	4f	.	4f	.
=148	=148	=148	=148	=148	=148
2.E	2G]	1g	4e]	2e	1g
.	.	.	4f	.	.
.	2.B	.	1g	4d	.
4F	.	.	.	4c	.
2.G	.	1d	.	1B	2.b
.	4c	.	.	.	.
.	[2d	.	[2d	.	.
4F	.	.	.	.	4cc
=149	=149	=149	=149	=149	=149
1D	4d]	2.f	2d]	1.A	1dd
.	4c	.	.	.	.
.	1A	.	2.f	.	.
.	.	4e	.	.	.
2.F	.	2d	.	.	2.a
.	.	.	4e	.	.
.	[2c	2f	4c	2a	.
4E	.	.	4d	.	4b
=150	=150	=150	=150	=150	=150
2C	4c]	2e	4e	2g	1cc
.	4B	.	4f	.	.
2E	2G	2c	2.g	2e	.
1D	1A	[1d	.	4f	1a
.	.	.	4e	4e	.
.	.	.	2f#i	4d	.
.	.	.	.	4c	.
=151	=151	=151	=151	=151	=151
1r	0G	1d]	0g	2B	0b
.	.	.	.	1d	.
1G	.	1B	.	.	.
.	.	.	.	2e	.
=152	=152	=152	=152	=152	=152
2A	1r	2c	1r	2c	0r
2F	.	2A	.	1d	.
2G	1G	2B	2r	.	.
2E	.	[2c	2e	2c#i	.
=153	=153	=153	=153	=153	=153
1D	2A	4c]	1f	1d	1dd
.	.	4B	.	.	.
.	2F	2B	.	.	.
1C	1G	2c	1e	1g	2ee
.	.	[2g	.	.	2cc
=154	=154	=154	=154	=154	=154
0r	0r	4g]	1d	1a	2.dd
.	.	4e	.	.	.
.	.	2f	.	.	.
.	.	.	.	.	4cc
.	.	2g	2e	2g	2b
.	.	[2a	2c	2e	2cc
=155	=155	=155	=155	=155	=155
1r	2r	2a]	1d	2.f	1a
.	1d	2f	.	.	.
.	.	.	.	4e	.
1G	.	1g	1B	2d	1b
.	2e	.	.	2g	.
=156	=156	=156	=156	=156	=156
2A	2c	1r	2c	2e	1a
2F	1d	.	2A	2f	.
2G	.	1G	2B	2d	2r
2E	[2c	.	2c	2g	2e
=157	=157	=157	=157	=157	=157
1D	4c]	2A	1d	1f	2f
.	4A	.	.	.	.
.	2B	2F	.	.	2d
1C	2c	1G	2G	2e	1e
.	2G	.	[2c	2g	.
=158	=158	=158	=158	=158	=158
0r	2A	2r	2c]	2e	2a
.	2F	2A	1d	2f	2a
.	1G	2B	.	1d	2.g
.	.	[2G	2B	.	.
.	.	.	.	.	4f
=159	=159	=159	=159	=159	=159
2r	1C	2G]	2c	1c	1e
1C	.	2G	1e	.	.
.	1r	2G	.	[1g	1r
2BB	.	2B	2d	.	.
=160	=160	=160	=160	=160	=160
2C	0r	1A	2e	2g]	1r
2D	.	.	2d	2f#i	.
2E	.	1G	2B	[1g	2r
2C	.	.	2c	.	[2cc
=161	=161	=161	=161	=161	=161
2.G	2r	0r	4G	2g]	2cc]
.	.	.	4A	.	.
.	1G	.	2B	2d	2b
4F	.	.	.	.	.
2E	.	.	2G	2e	2cc
2D	2F	.	2A	2f	2dd
=162	=162	=162	=162	=162	=162
2C	2G	1r	1c	2e	2ee
2C	2A	.	.	2c	2ee
2G	2B	2r	1B	[1d	[1dd
2G	2G	[2G	.	.	.
=163	=163	=163	=163	=163	=163
1D	2d	2G]	1A	1d]	0dd_
.	2D	2F	.	.	.
1r	2G	2G	2B	1r	.
.	2F	2A	[2d	.	.
=164	=164	=164	=164	=164	=164
1r	2.G	2B	4d]	1.g	1dd]
.	.	.	4c	.	.
.	.	2G	4B	.	.
.	4F	.	4G	.	.
2r	2D	1d	1A	.	1r
[2D	2F	.	.	2f	.
=165	=165	=165	=165	=165	=165
2D]	1E	2B	1G	1a	2r
2C	.	2c	.	.	1g
1D	2r	1A	[1d	2r	.
.	2D	.	.	2a	2f#i
=166	=166	=166	=166	=166	=166
2r	2G	0r	2d]	2b	2g
1D	2F	.	2.f	2a	2a
.	1G	.	.	2d	2b
.	.	.	4d	.	.
2C	.	.	2e	[2g	2cc
=167	=167	=167	=167	=167	=167
2D	1D	2r	1d	2g]	2a
2F	.	1d	.	2f	2a
1E	1G	.	2B	2g	2b
.	.	2c	[2G	2e	2cc
=168	=168	=168	=168	=168	=168
1D	1r	2B	2G]	1f	2.dd
.	.	2A	2F#i	.	.
.	.	.	.	.	4cc
2G	2r	2B	2G	1d	2b
2F	2D	[2d	2A	.	[2a
=169	=169	=169	=169	=169	=169
1E	2G	4d]	2B	1e	4a]
.	.	4B	.	.	4g
.	2C	2c	2G	.	1g
1D	2F	1A	2.d	1r	.
.	2D	.	.	.	2f#i
.	.	.	4c	.	.
=170	=170	=170	=170	=170	=170
2r	2E	[0Gl	2B	2r	[0gl
1C	2C	.	2c	1e	.
.	1G	.	4G	.	.
.	.	.	4A	.	.
2BB	.	.	2B	2d	.
=171	=171	=171	=171	=171	=171
1C	1E	0G_	2G	2e	0g_
.	.	.	1e	1c	.
1r	2.G	.	.	.	.
.	.	.	2d	2B	.
.	4F	.	.	.	.
=172	=172	=172	=172	=172	=172
1C	4E	0G_	2.e	2.c	0g_
.	4D	.	.	.	.
.	1E	.	.	.	.
.	.	.	4d	4d	.
2C	.	.	1c	1e	.
2C	2C	.	.	.	.
=173	=173	=173	=173	=173	=173
00GGl	00Dl	00G]	00Bl	00dl	00g]
==	==	==	==	==	==
*-	*-	*-	*-	*-	*-
!!!system-decoration: [*]
!!!RDF**kern: i = editorial accidental
!!!RDF**kern: l = terminal long
!!!ENC: Benjamin Ory
!!!END: 2021/4/7
!!!EED: Benjamin Ory
!!!EEV: 2021/04/27
!!!YEC: Copyright 2021 Benjamin Ory, All Rights Reserved
!!!ONB: Translated from MusicXML on 2021/04/27
